Carto/POI/SVG/fast-food_solid_24px.svg

<svg width="24" height="24" viewBox="0 0 24 24" fill="none" xmlns="http://www.w3.org/2000/svg">
<path d="M22 6L21 22H16.15C16.3782 21.5328 16.4979 21.02 16.5 20.5V17.74C16.8265 17.2183 16.9996 16.6154 16.9996 16C16.9996 15.3846 16.8265 14.7817 16.5 14.26V12C16.5 10.6739 15.9732 9.40215 15.0355 8.46447C14.0979 7.52678 12.8261 7 11.5 7H11.09L11 6H15.5V4C15.4988 3.82625 15.558 3.65747 15.6674 3.5225C15.7768 3.38753 15.9298 3.29475 16.1 3.26L20.1 2L20.5 3.5L17.5 4.5V6H22ZM2.5 20.47C2.49601 20.6695 2.53186 20.8678 2.60545 21.0532C2.67905 21.2387 2.7889 21.4076 2.92859 21.5501C3.06828 21.6926 3.23499 21.8058 3.41896 21.883C3.60293 21.9603 3.80047 22 4 22H13C13.3978 22 13.7794 21.842 14.0607 21.5607C14.342 21.2794 14.5 20.8978 14.5 20.5V19H2.5V20.47ZM14.5 12.47C14.5 10.81 13.16 8.97 11.5 8.97H5.5C3.84 8.97 2.5 10.81 2.5 12.47V13H14.5V12.47ZM14.25 15H2.75C2.34 15 2 15.45 2 16C2 16.55 2.34 17 2.75 17H14.25C14.66 17 15 16.55 15 16C15 15.45 14.66 15 14.25 15Z" fill="#0F1621"/>
</svg>

<svg xmlns="http://www.w3.org/2000/svg" width="24" height="24" viewBox="0 0 24 24"><rect width="24" height="24" style="fill:none"/><path d="M22,6,21,22H16.15a3.45,3.45,0,0,0,.35-1.5V17.74a3.28,3.28,0,0,0,0-3.48V12a5,5,0,0,0-5-5h-.41L11,6h4.5V4a.75.75,0,0,1,.6-.74L20.1,2l.4,1.5-3,1V6ZM2.5,20.47A1.5,1.5,0,0,0,4,22h9a1.5,1.5,0,0,0,1.5-1.5V19h-12Zm12-8c0-1.66-1.34-3.5-3-3.5h-6c-1.66,0-3,1.84-3,3.5V13h12ZM14.25,15H2.75c-.41,0-.75.45-.75,1s.34,1,.75,1h11.5c.41,0,.75-.45.75-1S14.66,15,14.25,15Z"/></svg>
